cps 0.6
d3 $ sound "yamahaha:27(2,5)" # cut 5 # gain (every 3 (rev) $ "0.6 1.5 1.6")
d1 $ sound "glitch:3(12,15)"
d2 $ sound "<glitch:2 glitch:2 glitch:2 [glitch:3 glitch:2]>" # room (every 7 (rev) $ "1.3 2.3 3.3")

d7 $ sound "future(4,16)" # gain "1.5" # crush "6" # room "2.3 4.3 5.6 7"

d6 $ sound "future:13(5,16)" # gain "1.5" # crush "6" # room "2.3 4.3 5.6 7"
d1 $ sound "glitch:13(7,16)" # gain "1.5" # crush "6" # room "2.3 4.3 5.6 7"