d1 $ sound "<hh hh hh hh future:21>(5,5)" # gain (every 5 (rev) $ "1.2 2 0.2 3 0.7")
d2 $ sound "bd(2,5)"
d3 $ sound "yamahaha:6(2,5)" # cut 3
d5 $ sound "cp(7,10)" # speed (every 7 (rev) $ "0.9 3 0.7 1.1 1.1")